X: 1243
T: Little Tom Tinker (round)
%R: song, jig
B: "The Golden Book of Favorite Songs", 1923
S: https://ia802507.us.archive.org/33/items/goldenbookoffavo00beat_0/goldenbookoffavo00beat_0.pdf
Z: 2020 John Chambers <jc:trillian.mit.edu>
M: 6/8
L: 1/8
K: Eb
% - - - - - - - - - - - - - - - - - - - - - - - - - - - - -
"^1"[| EEE EEE | GGG GGG "^2"| B2B B2B |
w: Lit-tle Tom Tin-ker got burned with a clink-er And he be-gan to
%
B3- B2z "^3"|(e3 B3) | (e3 B3) "^4"| GGG FFF | E3- E2z |]
w: cry.* Ma-* ma* What a poor fel-low am I.*
% - - - - - - - - - - - - - - - - - - - - - - - - - - - - -
